src/components/BobecoPage/simplebobaketle.svg

<svg width="153" height="158" viewBox="0 0 153 158" fill="none" xmlns="http://www.w3.org/2000/svg">
<path d="M102.512 132.583C130.396 132.583 153 107.689 153 76.9798C153 46.2709 130.396 21.3763 102.512 21.3763C74.6278 21.3763 52.0234 46.2709 52.0234 76.9798C52.0234 107.689 74.6278 132.583 102.512 132.583Z" fill="#F6F1D1"/>
<path d="M39.1349 146.241H90.7973V154H39.1349V146.241Z" fill="#9F7E69" stroke="#4C241D" stroke-width="6.80194" stroke-linecap="round" stroke-linejoin="round"/>
<path d="M102.539 84.1725C102.539 84.1725 121.325 79.0001 133.066 66.069L140.111 71.2414C140.111 71.2414 132.388 76.2044 130.718 84.1725C123.673 117.793 97.842 117.793 97.842 117.793" fill="#9F7E69"/>
<path d="M102.539 84.1725C102.539 84.1725 121.325 79.0001 133.066 66.069L140.111 71.2414C140.111 71.2414 132.388 76.2044 130.718 84.1725C123.673 117.793 97.842 117.793 97.842 117.793" stroke="#4C241D" stroke-width="6.80194" stroke-linecap="round" stroke-linejoin="round"/>
<path d="M43.8315 60.8966H86.1007C87.9692 60.8966 89.7611 61.714 91.0822 63.1691C92.4034 64.6241 93.1456 66.5975 93.1456 68.6552H36.7866" stroke="#4C241D" stroke-width="6.80194" stroke-linecap="round" stroke-linejoin="round"/>
<path d="M97.0458 77.707L100.157 23.1665C100.585 15.6509 96.8744 9.17249 92.1402 9.17249H37.7913C33.0572 9.17249 29.3375 15.6509 29.7743 23.1665L32.8858 77.707" stroke="#4C241D" stroke-width="6.80194" stroke-linecap="round" stroke-linejoin="round"/>
<path d="M91.4666 146.241H38.4657C36.4457 146.241 34.4473 145.785 32.5943 144.899C30.7412 144.014 29.0731 142.719 27.6931 141.094C26.3131 139.47 25.2508 137.55 24.572 135.455C23.8931 133.36 23.6122 131.133 23.7466 128.914L26.7524 79.2587C26.924 76.3843 28.0818 73.6894 29.9909 71.7204C31.9 69.7513 34.4176 68.6556 37.0332 68.6552H92.9108C95.5264 68.6556 98.044 69.7513 99.9531 71.7204C101.862 73.6894 103.02 76.3843 103.192 79.2587L106.197 128.914C106.332 131.135 106.051 133.362 105.371 135.458C104.691 137.554 103.628 139.474 102.247 141.099C100.866 142.723 99.1961 144.018 97.3416 144.903C95.4872 145.788 93.4875 146.243 91.4666 146.241Z" fill="#BDC973" stroke="#4C241D" stroke-width="6.80194" stroke-linecap="round" stroke-linejoin="round"/>
<path d="M90.7972 154H121.325" stroke="#4C241D" stroke-width="6.80194" stroke-linecap="round" stroke-linejoin="round"/>
<path d="M64.9661 60.8966V53.138" stroke="#4C241D" stroke-width="6.80194" stroke-linecap="round" stroke-linejoin="round"/>
<path d="M70.8369 45.3794H59.0954C57.15 45.3794 55.573 47.1162 55.573 49.2587C55.573 51.4012 57.15 53.138 59.0954 53.138H70.8369C72.7823 53.138 74.3593 51.4012 74.3593 49.2587C74.3593 47.1162 72.7823 45.3794 70.8369 45.3794Z" fill="#9F7E69" stroke="#4C241D" stroke-width="6.80194" stroke-linecap="round" stroke-linejoin="round"/>
<path d="M82.5784 4.00006H47.354C45.4086 4.00006 43.8315 5.73689 43.8315 7.87937V10.4656C43.8315 12.6081 45.4086 14.3449 47.354 14.3449H82.5784C84.5238 14.3449 86.1008 12.6081 86.1008 10.4656V7.87937C86.1008 5.73689 84.5238 4.00006 82.5784 4.00006Z" fill="#9F7E69" stroke="#4C241D" stroke-width="6.80194" stroke-linecap="round" stroke-linejoin="round"/>
<path d="M10.976 63.5107C16.044 69.685 28.6024 70.0015 28.6024 70.0015C28.6024 70.0015 29.5786 56.2094 24.5105 50.035C19.4425 43.8607 6.88263 43.5425 6.88263 43.5425C6.88263 43.5425 5.90642 57.3364 10.976 63.5107V63.5107Z" fill="#A9BA5A" stroke="#4C241D" stroke-width="4.40438" stroke-linecap="round" stroke-linejoin="round"/>
<path d="M14.9928 67.175C20.9868 66.4013 28.6779 73.485 28.6779 73.485C28.6779 73.485 22.6792 82.3387 16.6852 83.1124C10.6911 83.886 3.0001 76.8007 3.0001 76.8007C3.0001 76.8007 8.99872 67.9487 14.9928 67.175Z" fill="#77A052" stroke="#4C241D" stroke-width="4.40438" stroke-linecap="round" stroke-linejoin="round"/>
<path d="M55.8635 110.36C55.8635 110.897 55.7109 111.423 55.4249 111.87C55.1389 112.316 54.7324 112.665 54.2569 112.87C53.7813 113.076 53.258 113.13 52.7531 113.025C52.2483 112.92 51.7845 112.661 51.4205 112.281C51.0565 111.901 50.8086 111.417 50.7082 110.89C50.6078 110.363 50.6593 109.817 50.8563 109.32C51.0533 108.823 51.3869 108.399 51.8149 108.1C52.2429 107.802 52.7461 107.643 53.2609 107.643C53.9511 107.643 54.6131 107.929 55.1012 108.438C55.5893 108.948 55.8635 109.639 55.8635 110.36V110.36Z" fill="#4C241D" stroke="#4C241D" stroke-width="6.8" stroke-linecap="round" stroke-linejoin="round"/>
<path d="M50.0139 132.077C51.9369 132.077 53.4957 130.45 53.4957 128.442C53.4957 126.435 51.9369 124.807 50.0139 124.807C48.091 124.807 46.5321 126.435 46.5321 128.442C46.5321 130.45 48.091 132.077 50.0139 132.077Z" fill="#4C241D" stroke="#4C241D" stroke-width="6.8" stroke-linecap="round" stroke-linejoin="round"/>
<path d="M64.0862 102.693C66.0091 102.693 67.568 101.065 67.568 99.0578C67.568 97.0501 66.0091 95.4225 64.0862 95.4225C62.1632 95.4225 60.6044 97.0501 60.6044 99.0578C60.6044 101.065 62.1632 102.693 64.0862 102.693Z" fill="#4C241D" stroke="#4C241D" stroke-width="6.8" stroke-linecap="round" stroke-linejoin="round"/>
<path d="M38.9338 113.948C40.8568 113.948 42.4156 112.32 42.4156 110.312C42.4156 108.305 40.8568 106.677 38.9338 106.677C37.0109 106.677 35.452 108.305 35.452 110.312C35.452 112.32 37.0109 113.948 38.9338 113.948Z" fill="#4C241D" stroke="#4C241D" stroke-width="6.8" stroke-linecap="round" stroke-linejoin="round"/>
<path d="M80.559 108.099C80.5593 108.818 80.3552 109.522 79.9725 110.12C79.5899 110.718 79.0459 111.184 78.4095 111.46C77.773 111.735 77.0726 111.807 76.3968 111.667C75.7211 111.527 75.1003 111.18 74.6132 110.672C74.126 110.163 73.7942 109.515 73.6599 108.809C73.5255 108.104 73.5946 107.373 73.8584 106.708C74.1221 106.043 74.5688 105.476 75.1417 105.076C75.7147 104.677 76.3882 104.463 77.0772 104.464C78.0006 104.464 78.886 104.847 79.5389 105.529C80.1918 106.21 80.5587 107.135 80.559 108.099V108.099Z" fill="#4C241D" stroke="#4C241D" stroke-width="6.8" stroke-linecap="round" stroke-linejoin="round"/>
<path d="M94.833 109.234C94.833 109.772 94.6804 110.297 94.3944 110.744C94.1084 111.191 93.7019 111.539 93.2264 111.745C92.7508 111.951 92.2275 112.004 91.7226 111.9C91.2177 111.795 90.754 111.536 90.39 111.156C90.026 110.776 89.7781 110.292 89.6777 109.765C89.5773 109.237 89.6288 108.691 89.8258 108.195C90.0228 107.698 90.3564 107.274 90.7844 106.975C91.2124 106.676 91.7156 106.517 92.2304 106.517C92.5721 106.517 92.9106 106.587 93.2264 106.724C93.5421 106.86 93.829 107.061 94.0707 107.313C94.3124 107.565 94.5041 107.865 94.6349 108.195C94.7657 108.524 94.833 108.878 94.833 109.234V109.234Z" fill="#4C241D" stroke="#4C241D" stroke-width="6.8" stroke-linecap="round" stroke-linejoin="round"/>
<path d="M67.772 118.272C67.772 118.809 67.6193 119.335 67.3334 119.782C67.0474 120.228 66.6409 120.577 66.1653 120.782C65.6897 120.988 65.1664 121.042 64.6616 120.937C64.1567 120.832 63.6929 120.573 63.329 120.193C62.965 119.813 62.7171 119.329 62.6167 118.802C62.5162 118.275 62.5678 117.729 62.7648 117.232C62.9618 116.735 63.2953 116.311 63.7234 116.012C64.1514 115.714 64.6546 115.555 65.1693 115.555C65.8596 115.555 66.5216 115.841 67.0097 116.35C67.4978 116.86 67.772 117.551 67.772 118.272V118.272Z" fill="#4C241D" stroke="#4C241D" stroke-width="6.8" stroke-linecap="round" stroke-linejoin="round"/>
<path d="M82.4879 130.948C84.4109 130.948 85.9697 129.321 85.9697 127.313C85.9697 125.305 84.4109 123.678 82.4879 123.678C80.565 123.678 79.0061 125.305 79.0061 127.313C79.0061 129.321 80.565 130.948 82.4879 130.948Z" fill="#4C241D" stroke="#4C241D" stroke-width="6.8" stroke-linecap="round" stroke-linejoin="round"/>
</svg>

<svg xmlns="http://www.w3.org/2000/svg" width="153" height="158" fill="none"><path fill="#F6F1D1" d="M102.512 132.583c27.884 0 50.488-24.894 50.488-55.603 0-30.71-22.604-55.604-50.488-55.604S52.023 46.271 52.023 76.98s22.605 55.603 50.489 55.603Z"/><path fill="#9F7E69" stroke="#4C241D" stroke-linecap="round" stroke-linejoin="round" stroke-width="6.802" d="M39.135 146.241h51.662V154H39.135v-7.759Z"/><path fill="#9F7E69" d="M102.539 84.172S121.325 79 133.066 66.07l7.045 5.172s-7.723 4.963-9.393 12.931c-7.045 33.621-32.876 33.621-32.876 33.621"/><path stroke="#4C241D" stroke-linecap="round" stroke-linejoin="round" stroke-width="6.802" d="M102.539 84.172S121.325 79 133.066 66.07l7.045 5.172s-7.723 4.963-9.393 12.931c-7.045 33.621-32.876 33.621-32.876 33.621M43.831 60.897h42.27c1.868 0 3.66.817 4.981 2.272 1.321 1.455 2.064 3.428 2.064 5.486h-56.36"/><path stroke="#4C241D" stroke-linecap="round" stroke-linejoin="round" stroke-width="6.802" d="m97.046 77.707 3.111-54.54c.428-7.516-3.283-13.995-8.017-13.995H37.791c-4.734 0-8.453 6.479-8.017 13.994l3.112 54.541"/><path fill="#BDC973" stroke="#4C241D" stroke-linecap="round" stroke-linejoin="round" stroke-width="6.802" d="M91.467 146.241H38.466a13.59 13.59 0 0 1-5.872-1.342 14.835 14.835 0 0 1-4.9-3.805 16.61 16.61 0 0 1-3.122-5.639 17.771 17.771 0 0 1-.825-6.541l3.005-49.655c.172-2.875 1.33-5.57 3.239-7.539 1.909-1.969 4.427-3.064 7.042-3.065h55.878c2.615 0 5.133 1.096 7.042 3.065 1.909 1.97 3.067 4.664 3.239 7.539l3.005 49.655a17.749 17.749 0 0 1-.826 6.544 16.629 16.629 0 0 1-3.124 5.641 14.856 14.856 0 0 1-4.905 3.804 13.588 13.588 0 0 1-5.875 1.338Z"/><path stroke="#4C241D" stroke-linecap="round" stroke-linejoin="round" stroke-width="6.802" d="M90.797 154h30.528M64.966 60.897v-7.759"/><path fill="#9F7E69" stroke="#4C241D" stroke-linecap="round" stroke-linejoin="round" stroke-width="6.802" d="M70.837 45.38H59.095c-1.945 0-3.522 1.736-3.522 3.879 0 2.142 1.577 3.879 3.522 3.879h11.742c1.945 0 3.522-1.737 3.522-3.88 0-2.142-1.577-3.879-3.522-3.879ZM82.578 4H47.354c-1.945 0-3.523 1.737-3.523 3.88v2.586c0 2.142 1.578 3.879 3.523 3.879h35.224c1.946 0 3.523-1.737 3.523-3.88V7.88C86.1 5.737 84.524 4 82.578 4Z"/><path fill="#A9BA5A" stroke="#4C241D" stroke-linecap="round" stroke-linejoin="round" stroke-width="4.404" d="M10.976 63.51c5.068 6.175 17.626 6.491 17.626 6.491s.977-13.792-4.091-19.966c-5.069-6.174-17.628-6.492-17.628-6.492s-.977 13.793 4.093 19.968v0Z"/><path fill="#77A052" stroke="#4C241D" stroke-linecap="round" stroke-linejoin="round" stroke-width="4.404" d="M14.993 67.175c5.994-.774 13.685 6.31 13.685 6.31s-5.999 8.854-11.993 9.627C10.691 83.886 3 76.801 3 76.801S9 67.949 14.993 67.175Z"/><path fill="#4C241D" stroke="#4C241D" stroke-linecap="round" stroke-linejoin="round" stroke-width="6.8" d="M55.864 110.36c0 .537-.153 1.063-.44 1.51a2.63 2.63 0 0 1-1.167 1c-.476.206-.999.26-1.504.155a2.573 2.573 0 0 1-1.333-.744 2.755 2.755 0 0 1-.712-1.391 2.83 2.83 0 0 1 .148-1.57c.197-.497.53-.921.959-1.22a2.529 2.529 0 0 1 1.446-.457c.69 0 1.352.286 1.84.795a2.78 2.78 0 0 1 .763 1.922v0ZM50.014 132.077c1.923 0 3.482-1.627 3.482-3.635 0-2.007-1.56-3.635-3.482-3.635-1.923 0-3.482 1.628-3.482 3.635 0 2.008 1.559 3.635 3.482 3.635ZM64.086 102.693c1.923 0 3.482-1.628 3.482-3.635 0-2.008-1.559-3.636-3.482-3.636-1.923 0-3.482 1.628-3.482 3.636 0 2.007 1.56 3.635 3.482 3.635ZM38.934 113.948c1.923 0 3.482-1.628 3.482-3.636 0-2.007-1.56-3.635-3.482-3.635-1.923 0-3.482 1.628-3.482 3.635 0 2.008 1.559 3.636 3.482 3.636ZM80.559 108.099c0 .719-.204 1.423-.587 2.021a3.526 3.526 0 0 1-1.563 1.34 3.352 3.352 0 0 1-2.012.207 3.442 3.442 0 0 1-1.784-.995 3.69 3.69 0 0 1-.953-1.863 3.785 3.785 0 0 1 .198-2.101 3.608 3.608 0 0 1 1.284-1.632 3.377 3.377 0 0 1 1.935-.612c.924 0 1.809.383 2.462 1.065a3.718 3.718 0 0 1 1.02 2.57v0ZM94.833 109.234c0 .538-.153 1.063-.439 1.51a2.632 2.632 0 0 1-1.168 1.001 2.505 2.505 0 0 1-1.503.155 2.572 2.572 0 0 1-1.333-.744 2.755 2.755 0 0 1-.712-1.391 2.828 2.828 0 0 1 .148-1.57c.197-.497.53-.921.958-1.22a2.5 2.5 0 0 1 2.442-.251c.316.136.603.337.845.589.241.252.433.552.564.882.13.329.198.683.198 1.039v0ZM67.772 118.272c0 .537-.153 1.063-.439 1.51a2.63 2.63 0 0 1-1.168 1c-.475.206-.999.26-1.503.155a2.572 2.572 0 0 1-1.333-.744 2.755 2.755 0 0 1-.712-1.391 2.828 2.828 0 0 1 .148-1.57c.197-.497.53-.921.958-1.22a2.529 2.529 0 0 1 1.446-.457c.69 0 1.353.286 1.84.795a2.78 2.78 0 0 1 .763 1.922v0ZM82.488 130.948c1.923 0 3.482-1.627 3.482-3.635s-1.56-3.635-3.482-3.635c-1.923 0-3.482 1.627-3.482 3.635s1.559 3.635 3.482 3.635Z"/></svg>
